public/img/Hero/Infinix_Social.svg

<svg width="443" height="80" viewBox="0 0 443 80" fill="none" xmlns="http://www.w3.org/2000/svg">
<rect width="442.152" height="79" transform="translate(0.152344 0.868164)"/>
<path d="M64.5275 16.314C57.6287 16.314 51.4066 19.2926 47.0524 24.042L54.8458 35.9156C56.5237 32.2051 60.2316 29.6206 64.5275 29.6206C70.3972 29.6206 75.1722 34.4417 75.1722 40.3682C75.1722 46.2948 70.3972 51.1159 64.5275 51.1159C60.5585 51.1159 57.2764 48.8 55.264 45.6525C45.0122 29.6206 46.5582 31.875 43.2406 26.6445C42.4346 25.3727 41.4665 24.0548 41.2232 23.7964C36.8816 19.1902 30.7559 16.314 23.9762 16.314C10.8401 16.314 0.152344 27.1051 0.152344 40.3682C0.152344 53.6313 10.8401 64.4225 23.9762 64.4225C30.9105 64.4225 37.1604 61.4157 41.5172 56.6253L33.7769 44.5624C32.1549 48.4111 28.3735 51.1159 23.9762 51.1159C18.1064 51.1159 13.3315 46.2948 13.3315 40.3682C13.3315 34.4417 18.1064 29.6206 23.9762 29.6206C27.8919 29.6206 31.2121 31.8341 33.1687 34.9586C41.2105 47.7892 41.9581 48.7847 45.438 54.2404C46.3351 55.6453 47.7849 57.4749 48.2588 57.9227C52.5192 61.9505 58.242 64.4225 64.5275 64.4225C77.6635 64.4225 88.3513 53.6313 88.3513 40.3682C88.3513 27.1051 77.6635 16.314 64.5275 16.314Z" fill="#FA9D02"/>
<path d="M110.888 65.8682V18.9337H119.455V65.8682H110.888ZM127.79 65.8682V31.5966H135.539V38.3375L134.909 37.1405C135.707 35.0825 137.009 33.5285 138.815 32.4786C140.663 31.3866 142.805 30.8406 145.241 30.8406C147.761 30.8406 149.987 31.3866 151.919 32.4786C153.893 33.5705 155.426 35.1035 156.518 37.0775C157.61 39.0095 158.156 41.2565 158.156 43.8184V65.8682H149.903V45.7714C149.903 44.2594 149.609 42.9574 149.021 41.8654C148.433 40.7735 147.614 39.9335 146.564 39.3455C145.556 38.7155 144.359 38.4005 142.973 38.4005C141.629 38.4005 140.432 38.7155 139.382 39.3455C138.332 39.9335 137.513 40.7735 136.925 41.8654C136.337 42.9574 136.043 44.2594 136.043 45.7714V65.8682H127.79ZM169.103 65.8682V38.9675H163.055V31.5966H169.103V30.4626C169.103 27.8586 169.628 25.6536 170.678 23.8477C171.77 21.9997 173.282 20.5927 175.214 19.6267C177.146 18.6607 179.435 18.1777 182.081 18.1777C182.585 18.1777 183.131 18.2197 183.719 18.3037C184.349 18.3457 184.874 18.4087 185.294 18.4927V25.6116C184.874 25.5276 184.475 25.4856 184.097 25.4856C183.761 25.4436 183.446 25.4226 183.152 25.4226C181.304 25.4226 179.876 25.8426 178.868 26.6826C177.86 27.4806 177.356 28.7406 177.356 30.4626V31.5966H192.35V38.9675H177.356V65.8682H169.103ZM189.263 65.8682V31.5966H197.579V65.8682H189.263ZM204.447 65.8682V31.5966H212.196V38.3375L211.566 37.1405C212.364 35.0825 213.666 33.5285 215.472 32.4786C217.32 31.3866 219.462 30.8406 221.898 30.8406C224.418 30.8406 226.644 31.3866 228.576 32.4786C230.55 33.5705 232.083 35.1035 233.175 37.0775C234.267 39.0095 234.813 41.2565 234.813 43.8184V65.8682H226.56V45.7714C226.56 44.2594 226.266 42.9574 225.678 41.8654C225.09 40.7735 224.271 39.9335 223.221 39.3455C222.213 38.7155 221.016 38.4005 219.63 38.4005C218.286 38.4005 217.089 38.7155 216.039 39.3455C214.989 39.9335 214.17 40.7735 213.582 41.8654C212.994 42.9574 212.7 44.2594 212.7 45.7714V65.8682H204.447ZM241.792 65.8682V31.5966H250.045V65.8682H241.792ZM241.792 27.7536V18.9337H250.045V27.7536H241.792ZM254.577 65.8682L266.547 48.6694L254.514 31.5966H264.216L273.603 45.4564H269.256L278.643 31.5966H288.282L276.312 48.6694L288.219 65.8682H278.58L269.319 52.0713H273.54L264.279 65.8682H254.577Z" fill="white"/>
<path d="M307.352 16.3135L307.352 64.422" stroke="white" stroke-width="0.916353"/>
<path d="M333.071 36.1431C331.986 36.1431 330.994 35.9445 330.093 35.5474C329.192 35.1351 328.428 34.5776 327.802 33.8751C327.176 33.1726 326.725 32.386 326.45 31.5155L328.397 30.7137C328.81 31.8133 329.421 32.6609 330.23 33.2566C331.055 33.8369 332.017 34.1271 333.117 34.1271C333.789 34.1271 334.377 34.0202 334.881 33.8064C335.385 33.5926 335.774 33.2947 336.049 32.9129C336.339 32.5158 336.484 32.0577 336.484 31.5384C336.484 30.8206 336.278 30.2555 335.866 29.8431C335.469 29.4155 334.881 29.0948 334.102 28.881L330.963 27.9188C329.726 27.537 328.779 26.9337 328.122 26.109C327.466 25.2843 327.137 24.3374 327.137 23.2683C327.137 22.3367 327.359 21.5196 327.802 20.8171C328.26 20.0993 328.886 19.5418 329.68 19.1447C330.49 18.7324 331.406 18.5262 332.429 18.5262C333.453 18.5262 334.377 18.7095 335.201 19.076C336.041 19.4425 336.751 19.9389 337.332 20.5651C337.912 21.176 338.34 21.8785 338.615 22.6727L336.69 23.4745C336.324 22.5123 335.774 21.7869 335.041 21.2982C334.308 20.7942 333.445 20.5422 332.452 20.5422C331.841 20.5422 331.299 20.6491 330.826 20.8629C330.368 21.0614 330.009 21.3592 329.749 21.7563C329.505 22.1381 329.382 22.5963 329.382 23.1309C329.382 23.757 329.581 24.3145 329.978 24.8032C330.375 25.2919 330.978 25.6661 331.788 25.9257L334.651 26.7734C335.995 27.1857 337.011 27.7737 337.698 28.5373C338.386 29.301 338.729 30.2479 338.729 31.378C338.729 32.3097 338.485 33.1344 337.996 33.8522C337.523 34.57 336.858 35.1351 336.003 35.5474C335.163 35.9445 334.186 36.1431 333.071 36.1431ZM350.172 36.1431C348.965 36.1431 347.835 35.9293 346.781 35.5016C345.728 35.0587 344.804 34.4402 344.009 33.646C343.23 32.8518 342.62 31.9202 342.177 30.8511C341.734 29.7668 341.512 28.5908 341.512 27.3232C341.512 26.0403 341.734 24.8643 342.177 23.7952C342.62 22.7261 343.23 21.7945 344.009 21.0003C344.804 20.2062 345.72 19.5953 346.758 19.1676C347.812 18.74 348.95 18.5262 350.172 18.5262C351.394 18.5262 352.524 18.7476 353.562 19.1905C354.616 19.6182 355.533 20.2291 356.311 21.0232C357.106 21.8021 357.724 22.7261 358.167 23.7952C358.625 24.8643 358.854 26.0403 358.854 27.3232C358.854 28.5908 358.625 29.7668 358.167 30.8511C357.724 31.9202 357.106 32.8518 356.311 33.646C355.533 34.4402 354.616 35.0587 353.562 35.5016C352.524 35.9293 351.394 36.1431 350.172 36.1431ZM350.172 34.0584C351.119 34.0584 351.982 33.8904 352.761 33.5544C353.539 33.2031 354.211 32.722 354.777 32.1111C355.357 31.4849 355.8 30.7671 356.105 29.9577C356.426 29.133 356.586 28.2548 356.586 27.3232C356.586 26.3915 356.426 25.521 356.105 24.7116C355.8 23.9021 355.357 23.1919 354.777 22.581C354.211 21.9549 353.539 21.4738 352.761 21.1378C351.982 20.7865 351.119 20.6109 350.172 20.6109C349.24 20.6109 348.385 20.7865 347.606 21.1378C346.827 21.4738 346.148 21.9549 345.567 22.581C345.002 23.1919 344.559 23.9021 344.238 24.7116C343.918 25.521 343.757 26.3915 343.757 27.3232C343.757 28.2548 343.918 29.133 344.238 29.9577C344.559 30.7671 345.002 31.4849 345.567 32.1111C346.148 32.722 346.827 33.2031 347.606 33.5544C348.385 33.8904 349.24 34.0584 350.172 34.0584ZM369.986 36.1431C368.78 36.1431 367.665 35.9293 366.642 35.5016C365.634 35.0587 364.748 34.4402 363.984 33.646C363.236 32.8518 362.656 31.9202 362.243 30.8511C361.831 29.7821 361.625 28.6137 361.625 27.3461C361.625 26.0632 361.831 24.8872 362.243 23.8181C362.656 22.749 363.236 21.8174 363.984 21.0232C364.733 20.2291 365.618 19.6182 366.642 19.1905C367.665 18.7476 368.78 18.5262 369.986 18.5262C371.162 18.5262 372.216 18.7324 373.148 19.1447C374.095 19.5571 374.889 20.0916 375.53 20.7483C376.187 21.4051 376.653 22.1076 376.928 22.856L374.866 23.7952C374.469 22.8483 373.85 22.0847 373.01 21.5043C372.17 20.9087 371.162 20.6109 369.986 20.6109C368.795 20.6109 367.734 20.8934 366.802 21.4585C365.886 22.0236 365.168 22.8101 364.649 23.8181C364.129 24.8261 363.87 26.0021 363.87 27.3461C363.87 28.6748 364.129 29.8431 364.649 30.8511C365.168 31.8591 365.886 32.6457 366.802 33.2107C367.734 33.7758 368.795 34.0584 369.986 34.0584C371.162 34.0584 372.17 33.7682 373.01 33.1878C373.85 32.5922 374.469 31.8209 374.866 30.874L376.928 31.8133C376.653 32.5617 376.187 33.2642 375.53 33.9209C374.889 34.5776 374.095 35.1122 373.148 35.5245C372.216 35.9369 371.162 36.1431 369.986 36.1431ZM379.981 35.8682V18.8011H382.226V35.8682H379.981ZM384.372 35.8682L390.489 18.8011H393.146L399.263 35.8682H396.858L395.46 31.8591H388.175L386.778 35.8682H384.372ZM388.885 29.7973H394.75L391.497 20.4276H392.139L388.885 29.7973ZM401.414 35.8682V18.8011H403.659V33.8064H411.15V35.8682H401.414Z" fill="white"/>
</svg>

<svg width="443" height="80" fill="none" xmlns="http://www.w3.org/2000/svg"><path d="M.152.868h442.152v79H.152z"/><path d="M64.528 16.314c-6.9 0-13.121 2.979-17.476 7.728l7.794 11.874c1.678-3.71 5.386-6.295 9.682-6.295 5.87 0 10.644 4.82 10.644 10.747s-4.775 10.748-10.644 10.748c-3.97 0-7.252-2.316-9.264-5.463-10.252-16.032-8.706-13.778-12.023-19.008-.806-1.272-1.774-2.59-2.018-2.849-4.341-4.606-10.467-7.482-17.247-7.482C10.84 16.314.152 27.105.152 40.368c0 13.263 10.688 24.054 23.824 24.054 6.934 0 13.184-3.006 17.541-7.797l-7.74-12.063c-1.622 3.85-5.404 6.554-9.8 6.554-5.87 0-10.646-4.821-10.646-10.748 0-5.926 4.775-10.747 10.645-10.747 3.916 0 7.236 2.213 9.193 5.338 8.042 12.83 8.79 13.826 12.269 19.281.897 1.405 2.347 3.235 2.82 3.683 4.261 4.027 9.984 6.5 16.27 6.5 13.135 0 23.823-10.792 23.823-24.055S77.663 16.314 64.528 16.314Z" fill="#FA9D02"/><path d="M110.888 65.868V18.934h8.567v46.934h-8.567Zm16.902 0V31.597h7.749v6.74l-.63-1.197c.798-2.057 2.1-3.611 3.906-4.661 1.848-1.092 3.99-1.638 6.426-1.638 2.52 0 4.746.546 6.678 1.638a11.538 11.538 0 0 1 4.599 4.599c1.092 1.931 1.638 4.178 1.638 6.74v22.05h-8.253V45.771c0-1.512-.294-2.814-.882-3.906-.588-1.092-1.407-1.931-2.457-2.52-1.008-.63-2.205-.944-3.591-.944-1.344 0-2.541.314-3.591.944-1.05.589-1.869 1.428-2.457 2.52-.588 1.092-.882 2.394-.882 3.906v20.097h-8.253Zm41.313 0v-26.9h-6.048v-7.371h6.048v-1.134c0-2.604.525-4.81 1.575-6.615a10.736 10.736 0 0 1 4.536-4.221c1.932-.966 4.221-1.45 6.867-1.45.504 0 1.05.043 1.638.127.63.042 1.155.105 1.575.189v7.119a6.11 6.11 0 0 0-1.197-.126 7.642 7.642 0 0 0-.945-.063c-1.848 0-3.276.42-4.284 1.26-1.008.798-1.512 2.058-1.512 3.78v1.134h14.994v7.37h-14.994v26.901h-8.253Zm20.16 0V31.597h8.316v34.271h-8.316Zm15.184 0V31.597h7.749v6.74l-.63-1.197c.798-2.057 2.1-3.611 3.906-4.661 1.848-1.092 3.99-1.638 6.426-1.638 2.52 0 4.746.546 6.678 1.638a11.538 11.538 0 0 1 4.599 4.599c1.092 1.931 1.638 4.178 1.638 6.74v22.05h-8.253V45.771c0-1.512-.294-2.814-.882-3.906-.588-1.092-1.407-1.931-2.457-2.52-1.008-.63-2.205-.944-3.591-.944-1.344 0-2.541.314-3.591.944-1.05.589-1.869 1.428-2.457 2.52-.588 1.092-.882 2.394-.882 3.906v20.097h-8.253Zm37.345 0V31.597h8.253v34.271h-8.253Zm0-38.114v-8.82h8.253v8.82h-8.253Zm12.785 38.114 11.97-17.199-12.033-17.072h9.702l9.387 13.86h-4.347l9.387-13.86h9.639l-11.97 17.072 11.907 17.2h-9.639l-9.261-13.798h4.221l-9.261 13.797h-9.702Z" fill="#fff"/><path d="M307.352 16.314v48.108" stroke="#fff" stroke-width=".916"/><path d="M333.071 36.143c-1.085 0-2.077-.199-2.978-.596a6.836 6.836 0 0 1-2.291-1.672 6.425 6.425 0 0 1-1.352-2.36l1.947-.801c.413 1.1 1.024 1.947 1.833 2.543.825.58 1.787.87 2.887.87.672 0 1.26-.107 1.764-.32.504-.214.893-.512 1.168-.894a2.27 2.27 0 0 0 .435-1.375c0-.717-.206-1.282-.618-1.695-.397-.427-.985-.748-1.764-.962l-3.139-.962c-1.237-.382-2.184-.985-2.841-1.81a4.437 4.437 0 0 1-.985-2.84c0-.932.222-1.75.665-2.452a4.64 4.64 0 0 1 1.878-1.672c.81-.413 1.726-.619 2.749-.619 1.024 0 1.948.183 2.772.55.84.366 1.55.863 2.131 1.49a5.77 5.77 0 0 1 1.283 2.107l-1.925.802c-.366-.963-.916-1.688-1.649-2.177-.733-.504-1.596-.756-2.589-.756-.611 0-1.153.107-1.626.32a2.39 2.39 0 0 0-1.077.894c-.244.382-.367.84-.367 1.375 0 .626.199 1.183.596 1.672.397.489 1 .863 1.81 1.123l2.863.847c1.344.413 2.36 1 3.047 1.764.688.764 1.031 1.71 1.031 2.841 0 .932-.244 1.756-.733 2.474-.473.718-1.138 1.283-1.993 1.695-.84.398-1.817.596-2.932.596Zm17.101 0a8.93 8.93 0 0 1-3.391-.641 8.6 8.6 0 0 1-2.772-1.856 8.703 8.703 0 0 1-1.832-2.795c-.443-1.084-.665-2.26-.665-3.528 0-1.283.222-2.459.665-3.528.443-1.069 1.053-2 1.832-2.795a8.358 8.358 0 0 1 2.749-1.832c1.054-.428 2.192-.642 3.414-.642s2.352.222 3.39.665a8.03 8.03 0 0 1 2.749 1.832 8.256 8.256 0 0 1 1.856 2.772c.458 1.07.687 2.245.687 3.528 0 1.268-.229 2.444-.687 3.528a8.509 8.509 0 0 1-1.856 2.795 8.312 8.312 0 0 1-2.749 1.856c-1.038.427-2.168.641-3.39.641Zm0-2.085c.947 0 1.81-.168 2.589-.504a6.189 6.189 0 0 0 2.016-1.443 6.523 6.523 0 0 0 1.328-2.153 7.198 7.198 0 0 0 .481-2.635c0-.931-.16-1.802-.481-2.611a6.271 6.271 0 0 0-1.328-2.131 5.77 5.77 0 0 0-2.016-1.443c-.779-.352-1.642-.527-2.589-.527-.932 0-1.787.175-2.566.527a5.99 5.99 0 0 0-2.039 1.443 6.792 6.792 0 0 0-1.329 2.13c-.32.81-.481 1.68-.481 2.612 0 .932.161 1.81.481 2.635.321.81.764 1.527 1.329 2.153a6.437 6.437 0 0 0 2.039 1.443c.779.336 1.634.504 2.566.504Zm19.814 2.085c-1.206 0-2.321-.214-3.344-.641a8.27 8.27 0 0 1-2.658-1.856 8.49 8.49 0 0 1-1.741-2.795c-.412-1.069-.618-2.237-.618-3.505 0-1.283.206-2.459.618-3.528.413-1.069.993-2 1.741-2.795a7.676 7.676 0 0 1 2.658-1.832c1.023-.443 2.138-.665 3.344-.665 1.176 0 2.23.206 3.162.619.947.412 1.741.947 2.382 1.603.657.657 1.123 1.36 1.398 2.108l-2.062.94a5.148 5.148 0 0 0-1.856-2.292c-.84-.595-1.848-.893-3.024-.893-1.191 0-2.252.282-3.184.848-.916.565-1.634 1.351-2.153 2.36-.52 1.007-.779 2.183-.779 3.527 0 1.329.259 2.497.779 3.505.519 1.008 1.237 1.795 2.153 2.36.932.565 1.993.847 3.184.847 1.176 0 2.184-.29 3.024-.87a5.293 5.293 0 0 0 1.856-2.314l2.062.94c-.275.748-.741 1.45-1.398 2.107-.641.657-1.435 1.191-2.382 1.604-.932.412-1.986.618-3.162.618Zm9.995-.275V18.801h2.245v17.067h-2.245Zm4.391 0 6.117-17.067h2.657l6.117 17.067h-2.405l-1.398-4.009h-7.285l-1.397 4.01h-2.406Zm4.513-6.07h5.865l-3.253-9.37h.642l-3.254 9.37Zm12.529 6.07V18.801h2.245v15.005h7.491v2.062h-9.736Z" fill="#fff"/></svg>
